X:3
T:Andro à Patrice Corbel
N: validé 03/05/01 -- 04/08/02
R:Andro
O:Bretagne
M:4/4
K:Am
%%tablature 70 accordh accordn accordb
 "A"A2 cA "F" aAce | "G"dGBd "C"e4 | "F"fedc "G"B2 AB |1 "F"cABc "E"B4 :|2 "F"cABc "A"A4 :|
w:    *  * * * * * *   8 6 7 8  7'   * * * *  * * *   * * * *  7   * * * *  *  
w:    7  8 7 11 7 8 9   * * * *  *   8' 9 7' 8  6' 7 6'   8 7 6' 8  *   8 7 6' 8  7  
 "A"A2 GF "E"E3 B | "E"c2 d2 "C"e4 | "F"fedc "G"B2 AB |1 "F"cABc "E"B4 :|2 "F"cABc "A"A4 :|
w:    * 6 *  4' 7   6' 8  7'   * * * *  * * *   * * * *  7   * * * *  *  
w:    7 * 4'  * *   * *  *   8' 9 7' 8  6' 7 6'   8 7 6' 8  *   8 7 6' 8  7  

